X:1
T:Et Manducantibus Illis
T:Et Manducantibus Illis
T:Giovanni Giorgi
T:©2007 Paul R Marchesano. May be freely copied for nonprofit use
T:©2007 Paul R Marchesano. May be freely copied for nonprofit use
T:©2007 Paul R Marchesano. May be freely copied for nonprofit use
T:©2007 Paul R Marchesano. May be freely copied for nonprofit use
T:©2007 Paul R Marchesano. May be freely copied for nonprofit use
T:©2007 Paul R Marchesano. May be freely copied for nonprofit use
C:Giovanni Giorgi
Z:©2007 Paul R Marchesano. May be freely copied for nonprofit use
%%score [ 1 2 3 4 ]
L:1/8
Q:1/4=144
M:4/2
K:G
V:1 treble nm="Soprano" snm="S"
V:2 treble nm="Alto" snm="A"
V:3 treble-8 nm="Tenor" snm="T"
V:4 bass nm="Bass" snm="B"
V:1
 d8 B8- | B8 G8 | d16- | d4 c2 B2 c8- | c4 B2 A2 B8- | B8 e8 | A16 | z16 | z16 | d12 c4 | B8 B8 | %11
w: Et man-|* du-|can-||* ti- bus il-||lis,|||et _|man- du-|
 A6 A2 D8 | d16- | d4 c4 B8 | A16- | A8 ^G4 B4 | c12 d4 | c16- | c16- | c4 B2 A2 G8 | G16 | %21
w: can- ti- bus|il-|||* lis ac-|ce- pit|Je-||* sus _ pa-|nem|
 z4 G4 G4 G4 | c12 B4 | e16 | d12 c2 B2 | c16 | B16 | z4 c4 c4 c4 | =f12 e4- | e4 d8 c4 | %30
w: et be- ne-|di- cens|fre-|||git,|et be- ne-|di- cens|_ fre- *|
 B8 A6 B2 | ^c16 | d8 z8 | z4 G4 G4 G4 | c12 B4- | B4 A8 G4 | F8 E6 F2 | ^G16 | A4 A4 A4 A4 | %39
w: ||git|et be- ne-|di- cens|_ fre- *|||git et be- ne-|
 d12 ^c4 | f8 e8- | e4 d8 ^c4 | d8 z8 | z4 G4 G4 G4 | c8 B8 | e8 d8- | d4 c8 B4 | A8 B8 | c8 B8- | %49
w: di- cens|fre- *||git|et be- ne-|di- cens|fre- *||* git|et de-|
 B4 A4 G4 A4 | F8 ^G8 | z4 e8 d4- | d4 c4 B8 | A12 ^G4 | A16 | B4 e8 d4- | d4 ^c4 d4 D4 | %57
w: * dit e- *|* is,|et de-|* dit e-|||is, et de-|* dit e- *|
 E8 F4 F4 | G4 B4 E8 | D4 d8 c4- | c4 B2 A2 B8- | B8 e8 | A8 B6 c2 | d4 B4 A8 | B16 |] %65
w: * is, et|de- dit e-|is, et de-|* dit _ e-||||is.|
V:2
 z16 | z16 | G12 =F4 | E8 E8 | D6 D2 G,8 | G16- | G8 F8- | F8 A8- | A4 G2 F2 G4 B4 | A16- | %10
w: ||Et _|man- du-|can- ti- bus|il-|* lis,|_ et|_ _ _ man- du-|can-|
 A4 G2 F2 G8- | G4 F2 E2 F4 A4- | A4 ^G2 F2 G8 | A8 E8- | E8 D8 | E8 z8 | z4 A8 G4- | G4 G4 G8- | %18
w: |* ti- * bus il-||||lis|ac- ce-|* pit Je-|
 G8 F8 | G6 =F2 E8 | D16 | E8 z4 C4 | C4 C4 G8- | G8 G8 | z8 G8- | G4 F2 E2 F8 | G8 z4 G4 | %27
w: * sus|pa- * *||nem et|be- ne- di-|* cens|fre-||git, et|
 G4 G4 A8- | A4 B4 G8 | A8 z8 | z4 E4 E4 E4 | A16 | F16 | D6 C2 B,2 G,2 G4- | G4 F4 G8- | %35
w: be- ne- di-|* cens fre-|git|et be- ne-|di-|cens|fre- * * * *||
 G4 E4 F4 B,4 | z4 B,4 B,4 B,4 | E16 | ^C8 D2 E2 F4- | F4 B4 E6 D2 | ^C4 D4 E4 A,4 | z8 z4 A4 | %42
w: * * * git|et be- ne-|di-|cens fre- * *||* * * git|et|
 A4 A4 F8 | D8 E8- | E8 F4 G4- | G4 E4 F4 G4- | G4 E4 D4 G4- | G4 F4 G4 B4- | B4 A8 G4 | F8 E8- | %50
w: be- ne- di-|cens fre-||||* * git et|_ de- dit|e- *|
 E4 ^D4 E4 ^G4 | A12 B2 A2 | ^G4 A8 G4 | A8 z8 | z8 z4 A4- | A4 G8 F2 G2 | A12 ^G4 | A8 A4 D4- | %58
w: * * is, et|de- dit _|e- * *|is,|et|_ de- dit _|e- *|* is, et|
 D4 G8 A4- | A4 G8 A4 | F16 | G16 | F2 G2 A8 G4 | F4 D4 D8- | D16 |] %65
w: _ de- *|* * dit|e-|||* * is.|_|
V:3
 z16 | G8 B8- | B8 d8 | G16- | G2 A2 B2 c2 d8- | d4 ^c2 B2 c8 | d16 | z16 | d16 | d8 d8 | d16- | %11
w: |Et man-|* du-|can-||* ti- bus il-|lis,||et|man- du-|can-|
 d16- | d16 | e4 A4 B8 | c6 B2 A8 | B8 e8- | e8 =f8 | f4 e2 d2 e8- | e8 c8 | d12 c4- | %20
w: ||* ti- bus|il- * *|lis ac-|* ce-|* pit _ Je-|* sus|pa- *|
 c4 B2 A2 B8 | c6 d2 e8- | e8 z4 G4 | G4 G4 c8- | c4 B4 e8- | e8 c8 | d4 d4 d4 d4 | e12 c4- | %28
w: |* * nem|_ et|be- ne- di-|* cens fre-||git, et be- ne-|di- cens|
 c4 B4 c8- | c4 A4 ^G4 A4- | A4 ^G4 A8 | z4 A4 A4 A4 | d16 | B8 e8- | e4 c4 d8 | e8 ^d2 B2 e4- | %36
w: _ _ fre-||* * git|et be- ne-|di-|cens fre-|||
 e4 ^d4 e8 | z8 z4 e4 | e4 e4 A8- | A4 ^G4 A4 e4- | e4 d8 ^c4 | f6 ed e8 | f8 z4 d4 | B4 B4 B8- | %44
w: * * git|et|be- ne- di-|* cens fre- *|||git et|be- ne- di-|
 B4 A4 d8- | d4 c4 d8 | e8 z8 | z8 z4 g4- | g4 f2 e2 ^d4 e4 | e4 ^d4 e4 A4 | B8 B4 e4- | %51
w: * cens fre-||git|et|_ _ _ de- dit|e- * * *|* is, et|
 e4 c8 B4- | B4 c2 d2 e6 d2 | c4 A4 B8 | c4 e4 d8- | d4 B4 ^c4 d4 | e8 d8- | d4 ^c4 d8 | B8 c8 | %59
w: _ de- *|* dit _ e- *||is, et de-|* dit e- *||* * is,|et de-|
 d8 e8- | e4 d2 c2 B2 c2 d4- | d4 ^c2 B2 c8 | d6 c2 B8 | A4 G8 F4 | G16 |] %65
w: dit e-|||||is.|
V:4
 G,16 | E,16 | B,,16 | C,12 C,4 | G,16 | E,16 | D,16 | D16 | B,16 | F,16 | G,12 G,4 | D,16 | B,16 | %13
w: Et|man-|du-|can- ti-|bus|il-|lis,|et|man-|du-|can- ti-|bus|il-|
 A,12 G,4 | =F,16 | E,8 z4 E,4 | A,12 B,4 | C16 | A,16 | G,16- | G,16 | C,16 | z16 | C,8 C,4 C,4 | %24
w: ||lis ac-|ce- pit|Je-|sus|pa-||nem||et be- ne-|
 G,12 E,4 | A,16 | G,4 G,4 G,4 G,4 | C12 A,4 | D8 C8 | =F,8 E,8- | E,8 A,,8 | z16 | %32
w: di- cens|fre-|git, et be- ne-|di- cens|fre- *||* git||
 z4 D,4 D,4 D,4 | G,12 E,4 | A,8 G,8 | C8 B,8- | B,8 E,8 | z4 E,4 E,4 E,4 | A,8 F,8 | B,8 A,8- | %40
w: et be- ne-|di- cens|fre- *||* git|et be- ne-|di- cens|fre- *|
 A,16 | A,,16 | D,4 D,4 D,4 D,4 | G,12 E,4 | A,12 G,4 | C12 B,4 | E,6 F,2 G,8 | D,8 G,4 G,4 | %48
w: ||git et be- ne-|di- cens|fre- *|||* git et|
 A,8 B,8- | B,8 C8 | B,8 E,8 | C,8 D,8 | E,16 | =F,8 E,8 | A,,4 A,4 F,8 | G,8 A,8- | A,8 B,8 | %57
w: de- dit|_ e-|* is,|et de-|dit|e- *|is, et de-|dit e-||
 A,8 D,8 | z16 | B,,8 C,8 | D,16 | E,16 | D,16- | D,16 | G,,16 |] %65
w: * is,||et de-|dit|e-|||is.|

